!!!!SEGMENT: pl-kc--40102-iii-1-saf--001-021_zielenski-mikolaj--offertoria-totius-anni-in-festo-s-matthei-apostoli-et-euangelistae-posuisti-domine.krn
!!!cenid: 16xx:1499
!!!COM: Zieleński, Mikołaj
!!!COM-rismid: pe30013481
!!!CDT:
!!!CNT: Polish
!!!OTL: Offertoria totius anni
!!!OMV: 021
!!!PDT: 1611
!!!AGN:
!!!SMS-siglum: PL-Kc
!!!SMS-shelfmark: 40102 III/1 Saf.
!!!SMS-shelfwork: 001-021 W
!!!SMS-variant:
!!!SMS-altvar:
!!!NIFC-rismid: 990069886
!!!URL-scan: https://cyfrowe.mnk.pl/dlibra/publication/24235/edition/23926/content?ref=desc
!!!ONB-nifc: UWAGA: str. 20. Uwaga: W xml metrum 2/1 do źródłowego C| i odpowiednio 3/1 do 3/2
**kern	**kern	**kern	**kern
*group1	*group1	*group1	*group1
*part4	*part3	*part2	*part1
*staff4	*staff3	*staff2	*staff1
*I""Organo	*I""Organo	*I""Organo	*I""Organo
*I''org	*I''org	*I''org	*I''org
*Iorg	*Iorg	*Iorg	*Iorg
*ICklav	*ICklav	*ICklav	*ICklav
*clefF5	*clefC4	*clefC4	*clefC2
*k[]	*k[b-]	*k[b-]	*k[b-]
*d:	*d:	*d:	*d:
*M2/1	*M2/1	*M2/1	*M2/1
*met(c|)	*met(c|)	*met(c|)	*met(c|)
=1	=1	=1	=1
!LO:TX:t=P:problem:brak znaku przykluczowego	!	!	!LO:TX:t=P:problem:zdwojony znak przykluczowy
!LO:TX:a:t=Sette Tromboni cum Cantori.	!	!LO:TX:a:t=Poſuiſti Domine,	!LO:TX:a:t=In feſto S. Matthęi Apoſtoli, & Euangeliſtae. A 7.
00r	0r	1.A	00r
.	.	2A/	.
=2-	=2-	=2-	=2-
.	1r	2G/	.
.	.	2G/	.
.	[y1A	2.F/	.
.	.	4E/	.
=3	=3	=3	=3
!	!LO:N:vis=xstem:cue	!	!
00r	2A/]	4D/	0r
.	.	4E/	.
!	!LO:N:vis=2.	!	!
.	2A/	4F/	.
.	.	4D/	.
.	2G/	2E/	.
.	2G/	2E/	.
=4-	=4-	=4-	=4-
.	2.F/	2.D/	1.A
.	4E/	4E/	.
.	4D/	4F/	.
.	4E/	4G/	.
.	4F/	4A/	2A/
.	[>4D/	8G/	.
.	.	8F/	.
=5	=5	=5	=5
1r	4D/]	1E	2G/
.	8C#X/	.	.
!	!LO:SIC:v:s=8BBn/	!	!
.	8BB-/	.	.
.	2C#/	.	2G/
1.D	2.D/	2r	2.F/
.	.	1A	.
.	4E/	.	4G/
=6-	=6-	=6-	=6-
.	4F/	.	4A/
.	4E/	.	4G/
2D\	4F/	2D/	4A/
.	4G/	.	4B-/
2C\	2A/	2E/	2c/
2C\	2E/	[y2A/	2A/
=7	=7	=7	=7
!LO:SIC:v:s=2.BB-/	!	!LO:N:xstem:cue	!
2.BB/	2F/	4A/]	1.d
.	.	8G/	.
.	.	8F/	.
.	1D	4G/	.
4AA/	.	4A/	.
4GG/	.	2B-\	.
4AA/	.	.	.
!LO:SIC:v:s=4BB-/	!	!	!
4BB/	2BB-/	2.G/	2d/
4GG/	.	.	.
=8-	=8-	=8-	=8-
2AA/	2C/	.	2c/
.	.	8F#X/	.
!	!	!LO:SIC:v:s=8E#/	!
.	.	8E/	.
2AA/	2C/	2F#/	2c/
2.GG/	[y1D	2G/	[y1B-
.	.	2d\	.
4AA/	.	.	.
=9	=9	=9	=9
!LO:SIC:v:s=4BB-/	!LO:N:vis=xstem:cue	!	!LO:N:vis=xstem:cue
4BB/	2D/]	2d\	2B-/]
4C\	.	.	.
2D\	2D/	2d\	4A/
.	.	.	4G/
!	!	!	!LO:TX:t=P:problem:brakujacy dźwięk
1.AA	1A	1.c	4A/yy
.	.	.	4B-/
.	.	.	4c/
.	.	.	4d/
=10-	=10-	=10-	=10-
.	2r	.	4e/
.	.	.	4c/
2AA/	2A/	2c\	4e/
.	.	.	4f\
2GG/	2d\	2.B-\	2g\
2GG/	2B-\	.	2g\
.	.	8A/	.
.	.	8G/	.
=11	=11	=11	=11
2.FF/	1A	2A/	2c/
.	.	2.F/	1a
4EE/	.	.	.
4DD/	1d	.	.
4EE/	.	4G/	.
4FF/	.	4A/	2a\
4DD/	.	8G/	.
.	.	8F/	.
=12-	=12-	=12-	=12-
2EE/	1r	2E/	2g\
2EE/	.	2G/	2g\
[>1DD	2r	4D/	2.f\
.	.	4E/	.
.	[2d\	4F/	.
.	.	4G/	4e/
=13	=13	=13	=13
1DD]	2d\]	1A	4d/
.	.	.	4e/
.	2d\	.	4f\
.	.	.	4d/
2.AA/	1.c	2r	4e/
.	.	.	4A/
.	.	1A	1a
4GG/	.	.	.
=14-	=14-	=14-	=14-
2FF/	.	.	.
2FF/	2c\	2A/	4g\
.	.	.	4f\
1C	[1G	[y1G	2g\
.	.	.	2c/
=15	=15	=15	=15
!	!	!LO:N:vis=xstem:cue	!
1CC	1G]	2G/]	2e/
.	.	2F/	2f\
1.CC	1G	2E/	2g\
.	.	2c\	2a\
=16-	=16-	=16-	=16-
.	1G	4r	2.g\
.	.	4G/	.
2CC/	.	2c\	.
.	.	.	4g\
1FF	1A	2A/	2f\
.	.	[2F/	[<2a\
=17	=17	=17	=17
00r	00r	2F/]	2a\]
.	.	2.c\	2.g\
.	.	4c\	4g\
.	.	2A/	2a\
=18-	=18-	=18-	=18-
*	*	*lig	*
.	.	1B-	4d/
.	.	.	4e/
.	.	.	4f\
.	.	.	4d/
.	.	1A	1e
*	*	*Xlig	*
*custos:DD	*custos:d	*custos:D	*custos:d
!!LO:LB:g=original
=19	=19	=19	=19
2r	2r	1D	1d
1DD	1d	.	.
.	.	1r	1r
2.AA/	2.c\	.	.
=20-	=20-	=20-	=20-
.	.	0r	0r
4AA/	4c\	.	.
2FF/	2d\	.	.
1GG	2.B-\	.	.
.	8c\	.	.
.	8B-\	.	.
=21	=21	=21	=21
1AA	0A	0r	0r
1AA	.	.	.
=22-	=22-	=22-	=22-
0DD	0A	2r	2r
.	.	2f\	2a\
.	.	4d\	4f\
.	.	4e\	4g\
.	.	2d\	4a\
.	.	.	4f\
=23	=23	=23	=23
00r	00r	4G/	1b-
.	.	4A/	.
.	.	4B-\	.
.	.	4G/	.
.	.	2.c\	2g\
.	.	.	2g\
.	.	4c\	.
=24-	=24-	=24-	=24-
.	.	4F/	1a
.	.	4G/	.
.	.	4A/	.
.	.	4F/	.
.	.	2B-\	2f\
.	.	2B-\	2f\
=25	=25	=25	=25
00r	00r	2.G/	2.g\
.	.	4G/	4g\
.	.	2A/	2e/
.	.	1F	1a
=26-	=26-	=26-	=26-
.	.	.	.
.	.	2B-\	2f\
.	.	4G/	(<1b-
.	.	4A/	.
.	.	4B-\	.
.	.	4G/	.
=27	=27	=27	=27
2r	2r	2d\	1a)
2D\	2d\	2D/	.
4GG/	4B-\	1G	1g
4AA/	4c\	.	.
2GG/	4d\	.	.
.	8c\	.	.
.	8B-\	.	.
=28-	=28-	=28-	=28-
4DD/	2.A/	0r	0r
4EE/	.	.	.
4FF/	.	.	.
4DD/	4d\	.	.
!LO:SIC:v:s=2BB-/	!	!	!
2BB/	4d\	.	.
.	4e\	.	.
2FF/	4f\	.	.
.	8e\	.	.
.	8d\	.	.
=29	=29	=29	=29
2.C\	2c\	00r	00r
.	1e	.	.
4C\	.	.	.
2.AA/	.	.	.
.	2.f\	.	.
4AA/	.	.	.
=30-	=30-	=30-	=30-
!LO:SIC:v:s=2.BB-/	!	!	!
2.BB/	.	.	.
.	4f\	.	.
.	2d\	.	.
4AA/	.	.	.
2GG/	4e\	.	.
.	4d\	.	.
2DD/	[y2d\	.	.
=31	=31	=31	=31
!	!LO:N:xstem:cue	!	!
2.AA/	4d\]	0r	1r
.	8c#X\	.	.
!	!LO:SIC:v:s=8Bn\	!	!
.	8B-\	.	.
.	2c#\	.	.
4AA/	.	.	.
1DD	1d	.	2r
.	.	.	1a
=32-	=32-	=32-	=32-
0r	0r	2.B-\	.
.	.	.	2g\
.	.	4B-\	.
.	.	2A/	4.f\
.	.	.	8f\
.	.	2A/	2e/
=33	=33	=33	=33
1r	1r	2G/	2.g\
.	.	2G/	.
.	.	.	4f\
2r	2r	1C	1e
2DD/	2c\	.	.
=34-	=34-	=34-	=34-
2.FF/	2.c\	0r	0r
4FF/	4c\	.	.
2GG/	2B-\	.	.
2DD/	2A/	.	.
=35	=35	=35	=35
!LO:SIC:v:s=1BB-	!	!	!
1BB	1d	1r	1r
1AA	1c#X	2r	2r
.	.	2A/	2e/
=36-	=36-	=36-	=36-
0r	0r	2.D/	2.f#X\
.	.	4D/	4f#\
.	.	2G/	2g\
.	.	2D/	4a\
.	.	.	4a\
=37	=37	=37	=37
1r	1r	1B-	4a\
.	.	.	8g\
.	.	.	8f\
.	.	.	2g\
2r	2r	1A	1a
2F\	1c	.	.
=38-	=38-	=38-	=38-
1.D	.	0r	0r
.	2B-\	.	.
.	4.A/	.	.
.	8A/	.	.
2C\	2A/	.	.
=39	=39	=39	=39
!LO:SIC:v:s=2.BB-/	!	!	!
2.BB/	2.d\	0r	0r
!LO:SIC:v:s=4BB-/	!	!	!
4BB/	8c\	.	.
.	8B-\	.	.
2FF/	1c	.	.
2FF/	.	.	.
=40-	=40-	=40-	=40-
!LO:SIC:v:s=1BB-	!	!	!
1BB	1B-	1r	1r
1r	1r	2r	2r
.	.	2B-\	2f\
=41	=41	=41	=41
00r	00r	2.G/	2.g\
.	.	4G/	4g\
.	.	2A/	2e/
.	.	2F/	2a\
=42-	=42-	=42-	=42-
.	.	1c	1g
.	.	1F	1a
=43	=43	=43	=43
1.FF	1.A	1r	1r
.	.	1.F	1.a
2EE/	2G/	.	.
=44-	=44-	=44-	=44-
1.DD	1.F	.	.
.	.	2G/	2g\
.	.	2.A/	2.f\
2DD/	2F/	.	.
.	.	4A/	4f\
=45	=45	=45	=45
2DD/	2F/	2A/	2f\
2GG/	2G/	4G/	2d/
.	.	4F/	.
1.CC	1.G	2E/	2e/
.	.	2c\	2g\
=46-	=46-	=46-	=46-
.	.	2.c\	2.g\
2CC/	2G/	.	.
.	.	4c\	4g\
2.GG/	2.G/	2B-\	2g\
.	.	2B-\	2d/
4GG/	4G/	.	.
*custos:DD	*custos:F	*custos:A	*custos:f
!!LO:LB:g=original
=47	=47	=47	=47
2DD/	2F/	4A/	1f
.	.	8B-\	.
.	.	8c\	.
2DD/	2F/	2d\	.
1AA	2r	2A/	2e/
.	2A/	2c#X\	2a\
=48-	=48-	=48-	=48-
2DD/	2A/	2.d\	2.a\
2DD/	2A/	.	.
.	.	4d\	4a\
2.FF/	2.F/	2cny\	2a\
.	.	2A/	2f\
4FF/	4F/	.	.
=49	=49	=49	=49
2CC/	2c\	1G	1g
2CC/	2c\	.	.
1GG	1B-	2G/	2g\
.	.	2G/	2d/
=50-	=50-	=50-	=50-
2DD/	2A/	2.F/	2.f\
2DD/	2A/	.	.
.	.	4A/	4f\
2AA/	2.A/	2A/	2e/
2DD/	.	2F/	2d/
.	4A/	.	.
=51	=51	=51	=51
1.AA	2.A/	1.E	2.c/
.	4B-\	.	4d/
.	1.c	.	4e/
.	.	.	4f\
2AA/	.	2E/	2.e/
=52-	=52-	=52-	=52-
2.FF/	.	0A	.
.	.	.	4d/
.	2A/	.	2.d/
8EE/	.	.	.
8DD/	.	.	.
1AA	2.A/	.	.
.	.	.	8c#X/
!	!	!	!LO:SIC:v:s=8Bn/
.	.	.	8B-/
.	.	.	2c#/
.	4G/	.	.
=53	=53	=53	=53
2.DD/	2F#X/	1A	1d
.	2A/	.	.
4DD/	.	.	.
!	!LO:N:acc=#	!	!
2GG/	2Bn\	1r	1r
2CC/	2c\	.	.
=54-	=54-	=54-	=54-
4FF/	4c\	0r	0r
!LO:SIC:v:s=2BB-/	!	!	!
2BB/	2B-y\	.	.
4GG/	4B-\	.	.
1AA	1A	.	.
=55	=55	=55	=55
1DD	1A	2r	2r
.	.	4r	2f#X\
.	.	4D/	.
1r	1r	2G/	2g\
.	.	2D/	2a\
=56-	=56-	=56-	=56-
0r	0r	4A/	4a\
.	.	2B-\	2fny\
.	.	4G/	2g\
.	.	1A	.
.	.	.	4f\
.	.	.	2e/
=57	=57	=57	=57
2r	2r	1D	1d
!LO:SIC:v:s=2BB-/	!	!	!
2BB/	2f\	.	.
2C\	2e\	1r	1r
2D\	2d\	.	.
=58-	=58-	=58-	=58-
4GG/	4d\	0r	0r
2C\	2e-X\	.	.
4GG/	4d\	.	.
1D	1d	.	.
=59	=59	=59	=59
2.GG/	2d\	2r	2r
.	2B-\	2D/	2g\
4GG/	.	.	.
2DD/	2d\	2A/	2a\
!	!	!	!LO:N:acc=#
2GG/	2d\	2G/	2bn\
=60-	=60-	=60-	=60-
4CC/	4e\	4G/	4cc\
2FF/	4.c\	2A/	2a\
.	8A/	.	.
4DD/	4d\	4A/	4a\
1GG	1B-	2.B-\	1g
.	.	4c\	.
=61	=61	=61	=61
2.DD/	2.A/	2d\	2f\
.	.	1A	2.a\
4DD/	4F/	.	.
2AA/	2c\	.	.
.	.	.	2cc\
2C\	2c\	1G/	.
.	.	.	2g\
=62-	=62-	=62-	=62-
2GG/	2.B-\	.	.
.	.	.	2b-\
!LO:SIC:v:s=2BB-/	!	!	!
2BB/	.	1F	.
.	4B-\	.	2f\
2FF/	2A/	.	.
.	.	.	2a\
2AA/	2A/	[y2E/	.
.	.	.	4e/
=63	=63	=63	=63
!	!	!LO:N:xstem:cue	!
2EE/	2G/	4E/]	2g\
.	.	4C/	.
2FF/	1A	2.F/	1f
4DD/	.	.	.
4EE/	.	4G/	.
4FF/	2A/	4A/	4e/
4GG/	.	4B-\	4d/
=64-	=64-	=64-	=64-
2AA/	1A	2c\	4c/
.	.	.	4d/
2AA/	.	2C/	4e/
.	.	.	4f\
2GG/	2B-\	2G/	4g\
.	.	.	4d/
2DD/	2A/	2F/	[y2f\
=65	=65	=65	=65
!	!	!	!LO:N:xstem:cue
2.FF/	1.A	2F/	4f\]
.	.	.	4e/
.	.	2A/	2.d/
4GG/	.	.	.
2AA/	.	2.A/	.
.	.	.	8c#X/
!	!	!	!LO:SIC:v:s=8Bn/
.	.	.	8B-/
2AA/	2A/	.	2c#/
.	.	4A/	.
=66-	=66-	=66-	=66-
1.DD	1.A	2F/	2d/
.	.	4D/	1a
.	.	4E/	.
.	.	4F/	.
.	.	4G/	.
2DD/	2d\	4A/	2a\
.	.	4F/	.
=67	=67	=67	=67
2.GG/	1.B-	4G/	1g
.	.	4A/	.
.	.	4B-\	.
4AA/	.	4c\	.
!LO:SIC:v:s=1.BB-	!	!	!
1.BB	.	1.d	2f\
.	2B-\	.	4d/
.	.	.	4e/
=68-	=68-	=68-	=68-
.	2F/	.	4f\
.	.	.	4g\
2FF/	2F/	2A/	1a
1GG	2.B-\	1B-	.
.	.	.	4g\
.	4A/	.	4f#X\
=69	=69	=69	=69
1GG	2G/	1B-	4g\
.	.	.	4d/
.	2G/	.	2g\
1DDl	1dl	1Al	1al
==	==	==	==
*-	*-	*-	*-
!!!system-decoration: *
!!!RDF**kern: > = above
!!!RDF**kern: < = below
!!!RDF**kern: l = terminal long
!!!ENC: Filip Voros
!!!END: 2021-12-12
!!!ENC: Marta Lawrence
!!!END: 2021-12-20
